X:1
T:Cimpoiul
T:Cimpoiul
T:Cantec popular
C:Cantec popular
%%score { 1 | 2 }
L:1/8
Q:1/4=135
M:2/4
K:C
V:1 treble nm="Piano" snm="Pno."
V:2 bass 
V:1
"^Allegro""_legato" c2 GA | _BA GF | EC DC | EF G2 | c2 GA | _BA GF | EC DB, | C2 z2 | [CG]4- | %9
 [CG]4 | [CG]4- | [CG]4 | [CG]4- | [CG]4 | [CG]4- | [CG]4 |] %16
V:2
 [C,G,]4- | [C,G,]4 | [C,G,]4- | [C,G,]4 | [C,G,]4- | [C,G,]4 | [C,G,]4- | [C,G,]4 | E,C, D,C, | %9
 E,F, G,F, | E,C, D,C, | E,F, G,2 | E,C, D,C, | E,F, G,F, | E,2 D,2 | C,4 |] %16

